X:1
T:Mr GEORGE GORDON
T:Mr GEORGE GORDON
T:re-named the Strathbogie Toast
T:Wm MARSHALL
C:Wm MARSHALL
%%score 1 2
L:1/8
M:2/2
K:Gmin
V:1 treble 
V:2 bass 
V:1
 dg a/g/^f g2 d=f | cdfg dfcf | dg a/g/^f g2 dg | f<dc>A{A} G2 G2 | dg a/g/^f g2 d=f | cdfg dfcf | %6
 dfga bagf | d<fTc>A{A} G2 Gg || BGdG BGdG | fdcf AFcA | BGdG BGdG | f<dTc>A{A} G2 Gg | BGdG BGdG | %13
 fdcf AFcA | GABc d=efTg | f<dTc>A{A} G2 G2 |] %16
V:2
 G,2 [B,D]2 D,2 [B,D]2 | F,2 [A,C]2 C,2 [A,C]2 | G,2 [B,D]2 D,2 [B,D]2 | %3
 D,2 [F,A,]2 [G,B,]2 [G,B,]2 | G,2 [B,D]2 D,2 [B,D]2 | F,2 [A,C]2 C,2 [A,C]2 | %6
 G,2 [B,D]2 D,2 [B,D]2 | F,2 [F,A,]2 [G,B,]2 [G,B,]2 || G,2 [B,D]2 D,2 [B,D]2 | %9
 F,2 [A,C]2 C,2 [A,C]2 | G,2 [B,D]2 D,2 [B,D]2 | F,2 [A,C]2 [B,D]2 [G,B,]2 | %12
 G,2 [B,D]2 D,2 [B,D]2 | F,2 [A,C]2 C,2 [A,C]2 | G,2 [B,D]2 D,2 [A,D]2 | %15
 F,2 [F,A,]2 [G,B,]2 [G,,G,]2 |] %16

